X:73
T:Eight Men of Moidart. JJo8.073
%%VWML:JohnsonVol8-2184-p37-0
F:http://www.vwml.org/record/JohnsonVol8/2184/p37
Z:Transcribed by Simon Furey and Lewis Jones
Z:vmp.Simon Wilson 2013 www.village-music-project.org.uk
Z:Dance added by John Chambers 2017
M:C|
L:1/8
%Q:1/2=80
K:F
a |\
(a/g/f/e/) fcA2Fc | (A/B/c) Fc AGGa |\
(a/g/f/e/) fcA2Fc | (AB/c/) Gc AFF :|
|: c |\
AFcF dFcF | AFcF (d/c/B/A/) Gc |\
AFcF dFcF | AB/c/ Gc AFF :|
W: Cast off two Cu .|. Cross up two Cu .||. gallop
W:down one Cu. up again cast off .||. Right
W:hand and Left at Top :||: foot it Corners
W:and turn :||. Lead thro' the Bottom and
W:Top and turn your Partner
W:
T:Milk Maid. JJo8.074, The
B:J.Johnson Choice Collection Vol 8 1758
Z:vmp.Simon Wilson 2013 www.village-music-project.org.uk
Z:Dance added by John Chambers 2017
M:C|
L:1/8
%Q:1/2=80
K:D
|:\
f>g a>f f2e2 | d>c d>e d2A2 |\
B2(Bc/d/)c2(cd/e/) | d4D4 :|
|:\
e>c BA e>c BA | a>f ed a>f ed |\
B2(Bc/d/)c2(cd/e/) | d4D4 :|
W: Foot it across and turn .||. 1st
W:and 2d and 3d Cu. quite round
W:while you come into your Places
W:again .||. Right and Left
W:into the 2d Cu. Place :||:
W:
